X:1
T:Title
%%score { ( 1 3 ) | ( 2 4 ) }
L:1/8
Q:1/4=100
M:4/4
K:F
V:1 treble nm="Grand Piano"
V:3 treble 
V:2 bass 
V:4 bass 
V:1
 A2 A2 A2 A2 | B4 B4 | [Bd]2 [Bd]2 [Ac]2 [GB]2 | A8 | c2 c2 c2 c2 | d4 c4 | =B2 B2 A2 B2 | %7
w: J.~Lincoln~Hall * * *|||||||
[M:5/4] [Cc]2- [Cc]2- [Cc]6 |[M:4/4] c2 d2 G2 A2 | [GB]2- [CGB]2 C4 | B2 e2 d2 B2 | %11
w: ||||
 [FA]2- [CFA]2 C4 | A2 c2 B2 A2 |[M:5/4] G4 d6 |[M:4/4] c2 A2 [EA]2 [EG]2 | F8 |] %16
w: |||||
V:2
 [F,CF]2 [F,CF]2 [F,CF]2 [F,CF]2 | [G,CE]4 [G,CE]4 | [C,C]2 [C,C]2 [D,C]2 [E,C]2 | [F,CF]8 | %4
 [F,A,F]2 [F,A,F]2 [F,A,F]2 [F,A,F]2 | [F,B,F]4 [F,A,F]4 | [G,DF]2 [G,DF]2 [G,CF]2 [G,DF]2 | %7
[M:5/4][K:bass] z4 B6 |[M:4/4][K:treble] A2 B2 E2 F2 | C,2 C,2 C,4 | G2 c2 B2 G2 | F,2 F,2 F,4 | %12
 [F,CF]2 [F,_EF]2[K:treble] [F,DF]2 [F,CF]2 |[M:5/4] [B,DF]4 [=B,DF]6 | %14
[M:4/4] [CFA]2 [CF]2[K:bass] [C,C]2 [C,B,]2 | [F,A,]8 |] %16
V:3
 x8 | x8 | x8 | x8 | x8 | x8 | x8 |[M:5/4] E4 z2 z4 |[M:4/4] x8 | C2 z2 z4 | x8 | C2 z2 z4 | x8 | %13
[M:5/4] x10 |[M:4/4] x8 | x8 |] %16
V:4
 x8 | x8 | x8 | x8 | x8 | x8 | x8 |[M:5/4][K:bass] C,2- C,2- C,6 |[M:4/4][K:treble] x8 | x8 | x8 | %11
 x8 | x4[K:treble] x4 |[M:5/4] x10 |[M:4/4] x4[K:bass] x4 | x8 |] %16

